X: 6507
T: Cat Wants In Again, The
R: slide
M: 12/8
K: Amajor
|:Ace f3 eae f3|eae fec B3 B2c|
Ace f3 eae f3|eae fec B2A A3:|
|:e2A cBA e2A c2e|f2a ecA B3 Bcd|
e2A cBA e2A c2e|1 f2a ecA A3 c2d:|2 f2a aga aga c2B||

